lib/brands/logos/alipay.svg

<svg xmlns="http://www.w3.org/2000/svg" fill="none" aria-hidden="true" viewBox="0 0 202 56"><g id="Alipay"><g id="layer1"><g id="g3989"><path id="path3991" fill="#1677FF" d="M45.49 4.23727H13.0242C8.79623 4.23727 5.37231 7.69141 5.37231 11.9551V44.6957C5.37231 48.9566 8.79623 52.4121 13.0242 52.4121H45.49C49.7171 52.4121 53.1392 48.9566 53.1392 44.6957V11.9551C53.1392 7.69141 49.7171 4.23727 45.49 4.23727Z"/></g><g id="g3993"><path id="path3995" fill="white" d="M18.2793 41.284C10.8481 41.284 8.65103 35.3806 12.3236 32.1507C13.5491 31.0592 15.7885 30.5263 16.9825 30.4067C21.3968 29.9668 25.4832 31.6652 30.3054 34.0391C26.9158 38.4986 22.5985 41.284 18.2793 41.284ZM44.7005 34.4867C42.7891 33.841 40.2243 32.8537 37.3676 31.8114C39.0832 28.8035 40.4535 25.3782 41.3542 21.6556H31.9384V18.2353H43.4727V16.3262H31.9384V10.6245H27.2312C26.4055 10.6245 26.4055 11.4466 26.4055 11.4466V16.3262H14.7399V18.2353H26.4055V21.6556H16.774V23.5643H35.4539C34.7703 25.9396 33.8525 28.1695 32.7633 30.1955C26.7019 28.1786 20.234 26.5438 16.1707 27.55C13.5721 28.1957 11.8985 29.3481 10.9153 30.5556C6.40256 36.0931 9.63922 44.504 19.1696 44.504C24.8045 44.504 30.2328 41.3354 34.44 36.1138C40.7152 39.156 53.1393 44.3794 53.1393 44.3794V36.9351C53.1393 36.9351 51.579 36.8096 44.7005 34.4867Z"/></g><g id="g3997"><path id="path3999" fill="#1677FF" d="M109.094 11.2897C109.094 13.7818 110.915 15.4595 113.456 15.4595C115.996 15.4595 117.817 13.7818 117.817 11.2897C117.817 8.84538 115.996 7.11944 113.456 7.11944C110.915 7.11944 109.094 8.84538 109.094 11.2897Z"/></g><path id="path4001" fill="black" d="M96.9198 43.1632H104.493V8.1741H96.9198V43.1632Z"/><g id="g4003"><path id="path4005" fill="black" d="M72.6187 31.0368L77.1238 15.4596H77.316L81.5819 31.0368H72.6187ZM83.6431 9.37251H73.4815L62.1218 43.1636H69.1199L71.0372 36.549H83.0678L84.8885 43.1636H93.8521L83.6431 9.37251Z"/></g><path id="path4007" fill="black" d="M109.669 43.1632H117.242V17.4726H109.669V43.1632Z"/><g id="g4009"><path id="path4011" fill="black" d="M196.379 17.5207L196.426 17.4729H189.284L184.779 33.098H184.54L179.363 17.4729H170.879L181.089 43.2596L176.823 51.12V51.3118H183.485L196.379 17.5207Z"/></g><g id="g4013"><path id="path4015" fill="black" d="M131.287 38.7535C130.425 38.7535 129.61 38.6578 128.699 38.37V24.4703C130.281 23.368 131.575 22.8405 133.205 22.8405C136.033 22.8405 138.285 25.0935 138.285 29.8864C138.285 36.0213 134.978 38.7535 131.287 38.7535ZM136.081 16.9452C133.301 16.9452 131.144 17.9997 128.699 20.0127V17.4723H121.126V51.3112H128.699V42.9233C130.137 43.3068 131.479 43.4986 133.109 43.4986C139.867 43.4986 145.954 38.5139 145.954 29.6468C145.954 21.6903 141.544 16.9452 136.081 16.9452"/></g><g id="g4017"><path id="path4019" fill="black" d="M161.82 36.9323C159.807 38.0347 158.656 38.4661 157.315 38.4661C155.494 38.4661 154.343 37.2681 154.343 35.3508C154.343 34.6315 154.487 33.9127 155.062 33.3379C155.973 32.4268 157.747 31.7559 161.82 30.7975V36.9323ZM169.393 36.7406V26.0045C169.393 20.1566 165.943 16.9457 159.856 16.9457C155.973 16.9457 153.289 17.6162 148.4 19.1021L149.741 24.9978C154.199 22.9845 156.165 22.1217 158.226 22.1217C160.718 22.1217 161.82 23.895 161.82 26.6272V26.819C153.145 28.4488 150.461 29.3594 148.783 31.0371C147.537 32.2833 147.01 34.0567 147.01 36.1174C147.01 41.0543 150.845 43.6908 154.44 43.6908C157.123 43.6908 159.28 42.6841 162.204 40.479L162.731 43.1633H170.304L169.393 36.7406Z"/></g></g></g></svg>

<svg xmlns="http://www.w3.org/2000/svg" fill="none" aria-hidden="true" viewBox="0 0 202 56"><path fill="#1677FF" d="M45.49 4.237H13.024c-4.228 0-7.652 3.454-7.652 7.718v32.74c0 4.262 3.424 7.717 7.652 7.717H45.49c4.227 0 7.65-3.455 7.65-7.716v-32.74c0-4.265-3.423-7.719-7.65-7.719Z"/><path fill="#fff" d="M18.28 41.284c-7.432 0-9.629-5.903-5.956-9.133 1.225-1.092 3.465-1.625 4.659-1.744 4.414-.44 8.5 1.258 13.322 3.632-3.39 4.46-7.706 7.245-12.026 7.245Zm26.42-6.797c-1.91-.646-4.476-1.633-7.332-2.676 1.715-3.008 3.085-6.433 3.986-10.155h-9.416v-3.42h11.535v-1.91H31.938v-5.702h-4.707c-.826 0-.826.823-.826.823v4.88H14.74v1.908h11.665v3.42h-9.631v1.91h18.68a33.743 33.743 0 0 1-2.69 6.63c-6.062-2.016-12.53-3.651-16.593-2.645-2.599.646-4.272 1.798-5.256 3.006-4.512 5.537-1.276 13.948 8.255 13.948 5.634 0 11.063-3.169 15.27-8.39 6.275 3.042 18.7 8.265 18.7 8.265v-7.444s-1.561-.125-8.44-2.448Z"/><path fill="#1677FF" d="M109.094 11.29c0 2.492 1.821 4.17 4.362 4.17 2.54 0 4.361-1.678 4.361-4.17 0-2.445-1.821-4.17-4.361-4.17-2.541 0-4.362 1.725-4.362 4.17Z"/><path fill="#000" d="M96.92 43.163h7.573V8.174H96.92v34.99ZM72.619 31.037l4.505-15.577h.192l4.266 15.577h-8.963ZM83.643 9.373H73.481l-11.36 33.79h6.999l1.917-6.614h12.03l1.822 6.615h8.963L83.643 9.373Zm26.026 33.79h7.573v-25.69h-7.573v25.69Zm86.71-25.643.047-.047h-7.142l-4.505 15.625h-.239l-5.177-15.625h-8.484l10.21 25.787-4.266 7.86v.192h6.662l12.894-33.791Zm-65.092 21.234a8.268 8.268 0 0 1-2.588-.384v-13.9c1.582-1.102 2.876-1.63 4.506-1.63 2.828 0 5.08 2.253 5.08 7.046 0 6.135-3.307 8.868-6.998 8.868Zm4.794-21.809c-2.78 0-4.937 1.055-7.382 3.068v-2.54h-7.573V51.31h7.573v-8.388c1.438.384 2.78.576 4.41.576 6.758 0 12.845-4.985 12.845-13.852 0-7.957-4.41-12.702-9.873-12.702m25.739 19.988c-2.013 1.103-3.164 1.534-4.505 1.534-1.821 0-2.972-1.198-2.972-3.115 0-.72.144-1.438.719-2.013.911-.911 2.685-1.582 6.758-2.54v6.134Zm7.573-.191V26.005c0-5.848-3.45-9.06-9.537-9.06-3.883 0-6.567.671-11.456 2.157l1.341 5.896c4.458-2.014 6.424-2.876 8.485-2.876 2.492 0 3.594 1.773 3.594 4.505v.192c-8.675 1.63-11.359 2.54-13.037 4.218-1.246 1.246-1.773 3.02-1.773 5.08 0 4.937 3.835 7.574 7.43 7.574 2.683 0 4.84-1.007 7.764-3.212l.527 2.684h7.573l-.911-6.422Z"/></svg>
